Adwaita++-Dark/actions/16/object-merge.svg

<svg height="16" width="16" xmlns="http://www.w3.org/2000/svg">
  <path d="m8 2-3 5h2v2c0 1.679-1.32 3-3 3h-3v2h3c1.62 0 3.08-.788 4-1.984.92 1.196 2.38 1.984 4 1.984h3v-2h-3c-1.68 0-3-1.321-3-3v-2h2z" fill="#e6ddff"/>
</svg>

<svg xmlns="http://www.w3.org/2000/svg" width="16" height="16" version="1.1">
 <path style="fill:#E6DDFF" d="M 8,2 5,7 H 7 V 9 C 7,10.679 5.68,12 4,12 H 1 V 14 H 4 C 5.62,14 7.08,13.212 8,12.016 8.92,13.212 10.38,14 12,14 H 15 V 12 H 12 C 10.32,12 9,10.679 9,9 V 7 H 11 Z"/>
</svg>
